X:6
T:Janet's Rant
C:Iain Lowe
R:rant
M:4/4
L:1/8
K:D
(3ABc |: d2fe d2fe | dcde dAAF | BGBd cedA | dfgf e2 (3ABc |
d2fe d2fe | dcde dAAF | BGBd ceag |1 fedc d2 (3ABc :|2 fedc d2 zf |:
afdc dedA | gfec Acec | d2dc dede | fdgf e2 zf |
afdc dedA | gfec Acec | d2fe dcda |1 gfec d2zf :|2 gfec d4 |]
